X: 153
T: No_77_Sixth_Song_of_the_Dog_Feast.krn
%%abc-version 2.0
%%abcx-abcm2ps-target-version 5.9.1 (29 Sep 2008)
%%abc-creator hum2abc beta
%%abcx-conversion-date 2020/08/10 18:54:57
%%gracespace 0 6 6
%%humdrum-veritas 3211957006
%%humdrum-veritas-data 279922701
%%linebreak <none>
%%barnumbers 0
L: 1/8
M: 2/4
%%staves {1 2}
V: 1 clef=bass
V: 2 clef=bass
K: Db
[V:1] [K:clef=bass][M:2/4]E2E2- | 
[V:2] [K:clef=bass][M:2/4]G,,G,, G,,G,, | 
[V:1] E2D2 ||  
[V:2] G,,G,, G,,G,, ||  
[V:1] [M:3/4]D2>B,2A,2 ||  
[V:2] [M:3/4]z6 ||  
[V:1] [M:2/4]B,<A, E,A,3//A,// | 
[V:2] [M:2/4]z4 | 
[V:1] A,4 | 
[V:2] z4 | 
[V:1] B,2B,D | 
[V:2] z4 | 
[V:1] DB,A,2 | 
[V:2] z4 | 
[V:1] B,<A, F,/E,3/ | 
[V:2] z4 | 
[V:1] G,<G, E,/D,3/ | 
[V:2] z4 | 
[V:1] D,B,,A,,2 | 
[V:2] z4 | 
[V:1] E,E, E,/D,3/ | 
[V:2] z4 | 
[V:1] D,B,, A,,3/A,,/ | 
[V:2] z4 | 
[V:1] A,,3A,, | 
[V:2] z4 | 
[V:1] A,,4 | 
[V:2] z4 | 
[V:1] A,2E,A,3//A,// | 
[V:2] z4 | 
[V:1] A,4 | 
[V:2] z4 | 
[V:1] B,2B,D | 
[V:2] z4 | 
[V:1] DB,A,2 | 
[V:2] z4 | 
[V:1] B,<A, F,/E,3/ | 
[V:2] z4 | 
[V:1] G,<G, E,/D,3/ | 
[V:2] z4 | 
[V:1] D,B,,A,,2 | 
[V:2] z4 | 
[V:1] E,E, E,/D,3/ | 
[V:2] z4 | 
[V:1] D,B,, A,,3/A,,/ | 
[V:2] z4 | 
[V:1] A,,3A,, | 
[V:2] z4 | 
[V:1] A,,4 |]  
[V:2] z4 |]  


